icon/pk/waterfalls-h.svg

<svg width="48" height="48" fill="none" xmlns="http://www.w3.org/2000/svg"><path d="M20 6H6v11h14V6ZM42 31H28v11h14V31ZM42 6H28v17h14V6ZM20 25H6v17h14V25Z" fill="#2F88FF" stroke="#000" stroke-width="4" stroke-linejoin="round"/></svg>

<svg viewBox="0 0 48 48" fill="none" xmlns="http://www.w3.org/2000/svg" height="1em" width="1em">
  <path d="M20 6H6V17H20V6Z" fill="#2F88FF" stroke="black" stroke-width="4" stroke-linejoin="round"/>
  <path d="M42 31H28V42H42V31Z" fill="#2F88FF" stroke="black" stroke-width="4" stroke-linejoin="round"/>
  <path d="M42 6H28V23H42V6Z" fill="#2F88FF" stroke="black" stroke-width="4" stroke-linejoin="round"/>
  <path d="M20 25H6V42H20V25Z" fill="#2F88FF" stroke="black" stroke-width="4" stroke-linejoin="round"/>
</svg>
